X:1
T:Pleusist a dieu (TS)
T:Pleusist a dieu (TS)
T:Tielman Susato
C:Tielman Susato
%%score [ 1 2 [ 3 4 ] ]
L:1/8
Q:1/4=80
M:2/2
K:F
V:1 treble nm="Superius 1" snm="S 1"
V:2 treble nm="Superius 2" snm="S 2"
V:3 treble-8 nm="Tenor" snm="T"
V:4 bass nm="Bassus" snm="B"
V:1
 z8 | z8 | z8 | z8 | z8 | F4 G2 G2 | A8 | z2 F2 A2 c2 | B2 A3 G E2 | F4 G4 | A2 F2 A2 c2 | %11
w: |||||Pleu- sist a|dieu,|qui cre- a|tout le _ _|mon- *|de, qui cre- a|
 B2 A3 G E2 | F4 G4 | A3 G F2 E2 | D4 C4- | C4 z4 | z8 | z4 z2 A2 | B2 c2 d4 | c2 A2 B3 A | %20
w: tout le _ _|mon- *||* de,|_||que|je fus- se'au-|prez de mez _|
 B2 c3 B A2 | G4 z4 | z8 | z8 | z8 | F4 G2 G2 | A4 z2 F2 | A2 c4 B2 | A3 G F2 E2 | D4 C2 C2 | %30
w: _ a- * *|mours||||fust en chas-|teau ou|en fos- se|par- * * fon-|* de, fust|
 D2 E2 F4 | E2 CD EF G2- | GFDE FG AB | c3 B/A/ G4 | z8 | z8 | z4 c4 | B2 B2 A4- | A2 GF E2 G2- | %39
w: en chas- teau|ou en fos- se par- fon-||* * * de.|||A-|vecq el- le|_ voul- * droy- e'u-|
 GFDE FG A2 | G2 F4 E2 | F8 | z2 c2 c2 c2 | B2 AG A4 | z2 c2 c2 c2 | B2 AG A2 A2 | B2 c2 F4 | z8 | %48
w: * * * * ser _ _|_ _ mez|jours,|aul- tre ne|veulx, _ _ _|c'est mon de-|sir, _ _ _ c'est|mon de- sir,||
 z8 | z2 C2 CDEF | G2 E2 F3 G | A2 F2 GA Bc | d2 B2 c2 d2 | F4 G4 | A6 GF | E2 E2 F4 | z4 D4 | %57
w: |aul- tre _ _ _|_ ne veulx _|_ c'est mon _ _ _|_ de- sir, cest|mon _|_ _ _|* de- sir,|en|
 E2 G2 F2 E2 | D2 A2 B4 | G4 A4 | z4 F4 | A2 c4 B2 | A2 G2 FG AB | A2 G2 F4 | E4 z2 E2- | %65
w: dan- gier suis,- bel-|le, m'y lai-|rez vous,|m'y|lai- * *|* * lai- * * *|* * rez|vous, m'y|
 E2 A4 D2- | D2 G3 FED | G2 F4 E2 | F2 c2 cB AG | A4 z2 F2- | FG A2 F3 G | A8 |] %72
w: _ lai- *||* * rez|vous _ _ _ _ _|_ m'y|_ _ _ lai- rez|vous?|
V:2
 z8 | z8 | z8 | z4 F4 | G2 G2 A2 F2 | A2 c2 B4 | A2 F4 E2 | F3 E/D/ C2 C2 | D2 F4 E2 | %9
w: |||Pleu-|sist a dieu, qui|cre- a tout|le mon- *|||
 D2 D2 C2 C2 | D2 F4 E2 | D2 D2 C4 | z2 F4 E2 | F2 A4 G2 | A2 B2 c4- | c2 BA G4 | F4 z4 | %17
w: de, qui cre- a|tout _ _|le mon- de,|qui cre-|a tout le|mon- * *||de,|
 D4 E2 F2 | G4 F2 D2 | E2 F2 G3 F | G2 A3 GFE | D4 C4 | z8 | z4 F4 | G2 G2 AG FE | DC F4 E2 | %26
w: que je fus-|se'au- prez de|mez _ _ _|_ _ _ _ _|a- mours,||fust|en chas- * * * *||
 F2 C2 D2 F2- | F2 E2 D2 D2 | C4 z4 | z8 | z8 | z4 c4 | B2 B2 A4- | A2 GF E2 CD | EF G3 FDE | %35
w: teau ou en fos-|* se par- fon-|de.|||A-|vecq el- le|_ _ _ _ voul- *||
 FG A2 G2 F2 | A4 z2 G2- | GFDE FG AB | c3 B G3 A | B4 A4 | z4 G4 | A2 c3 B AG | A4 G4 | z4 z2 F2 | %44
w: * * * * droy-|e u-||ser _ _ _|mez jours,|u-|ser mez _ _ _|_ jours,|aul-|
 F2 F2 E2 C2 | D2 E2 F3 E | D2 A2 A2 A2 | G2 E2 F2 G2 | C4 z4 | c4 c2 c2 | B2 AG A4- | A4 F4 | %52
w: tre ne veulx, c'est|mon de- sir, _|_ c'est mon de-||sir,|aul- tre ne|veulx, _ _ _|_ c'est|
 F2 F2 E2 C2 | D2 F4 E2 | F6 ED | C4 z2 C2 | E2 G2 F4 | E4 C2 E2 | A4 D2 G2- | GFED E2 F2 | C4 z4 | %61
w: mon de- sir, c'est|mon _ _|_ de _|sir, en|dan- gier suis,|bel- le, m'y|lai- * *|* * * * * rez|vous,|
 C4 D2 F2 | F2 E2 D4 | z8 | z2 G2 A2 c2- | cB AG F2 A2 | d4 G4 | c4 z2 c2- | cB AG A2 F2- | %69
w: en dan- gier|suis, _ _||bel- le, m'y|_ _ _ _ _ lai-|* rez|vous, m'y|_ _ _ _ lai- *|
 FE C2 D3 E | F8- | F8 |] %72
w: * * * * rez|vous?|_|
V:3
 z8 | z4 c4 | d2 d2 e4 | z2 c2 d2 f2- | f2 e2 d2 c2- | cB A2 G4 | z2 d4 c2 | d2 c2 A4 | %8
w: |Pleu-|sist a dieu,|qui cre- a|_ tout le mon-|* * * de,|tout le|mon- * de,|
 z2 F2 A2 c2 | B2 A2 G4 | F4 z2 c2 | d2 f4 e2 | d2 c2 d2 B2 | c4 z4 | z8 | A4 B2 c2 | d4 c2 A2 | %17
w: qui cre- a|tout le mon|de, qui|cre- a tout|le mon- * *|de,||que je fus-|se'au- prez de|
 B6 A2 | G3 A B2 A2- | AG F2 z4 | z8 | z8 | c4 d2 d2 | e2 c2 d2 f2- | f2 e2 d3 c | B2 A2 G4 | F8 | %27
w: mez a-|mours, _ _ _|_ _ _|||fust en chas-|teau ou en fos-|* se par- *|* fon- *|de,|
 z8 | z4 c4 | d2 f4 e2 | d2 c4 B2 | c2 c3 B G2- | GA Bc d3 c | AB cd ef g2 | c3 B GA B2 | F4 z4 | %36
w: |ou|en fos- se|par- fon- *|de, [ou en fos-|* * * * se par-|fon- * * * * * *||de.]|
 f4 e2 e2 | d6 cB | A2 c3 B G2- | GA Bc d3 c | B2 A2 G4 | F4 z2 f2 | f2 f2 e2 c2 | d2 e2 f3 e/d/ | %44
w: A- vecq el-|le voul- *|droy- e'u- * ser|_ _ _ _ _ _|* * mez|jours, aul-|tre ne veulx, c'est|mon de- sir, _ _|
 c4 z4 | z2 c2 c2 c2 | B2 AG A2 c2 | c2 c2 B2 AG | A4 z2 F2 | FG AB c2 A2 | B2 c2 F2 c2 | d4 c4 | %52
w: _|aul- tre ne|veulx, _ _ _ c'est|mon de- sir; _ _|_ aul-|tre _ _ _ _ ne|_ _ veulx, c'est|mon de-|
 F4 z4 | z8 | z4 z2 F2 | A2 c2 B2 A2 | G4 A2 d2 | G4 c4 | A2 d4 G2- | G2 c3 B AG | A2 c2 d2 f2- | %61
w: sir,||en|dan- gier suis, bel-|le, m'y lai-|rez vous,|m'y lai- *|* rez _ _ _|vous, en dan- gier|
 f2 e2 d4 | c4 A2 d2- | dG c4 B2 | c8 | z2 A4 d2- | d2 G4 c2- | cB A2 G4 | F8 | z2 A4 d2- | %70
w: _ suis, bel-|le, m'y lai-|* * * rez|vous,|m'y lai-||* * * rez|vous,|m'y lai-|
 d2 c2 B4 | A8 |] %72
w: * * rez|vous?|
V:4
 F,4 G,2 G,2 | A,3 G, F,E, F,2- | F,2 E,D, C,2 C,2 | D,2 F,3 E, D,2 | C,4 F,4- | F,4 z4 | %6
w: Pleu- sist a|dieu, _ _ _ _|_ _ _ _ qui|cre- a tout le|mon- de,|_|
 D,3 E, F,G, A,2 | D,2 F,3 G, A,2 | D,4 z2 C,2 | D,2 F,4 E,2 | D,4 D,2 C,2 | z2 F,2 A,2 C2 | %12
w: tout _ _ _ _|le mon- * *|de, qui|cre- a tout|le mon- de,|qui cre- a|
 B,2 A,2 G,4 | F,2 C,2 D,2 E,2 | F,2 G,2 C,4 | z8 | D,4 E,2 F,2 | G,6 F,2- | F,2 E,2 D,4 | %19
w: tout le mon-|de, tout le _|mon- * de,||que je fus-|se'au- prez|_ de mez|
 A,4 G,4 | z4 F,4 | G,2 G,2 A,2 F,2 | A,2 C2 B,A,G,F, | E,2 F,3 E, D,2 | C,4 z4 | z8 | z8 | %27
w: a- mours,|fust|en chas- teau ou|en fos- se _ _ _|par- fon- * *|de,|||
 F,4 G,2 G,2 | A,2 F,2 A,2 C2- | C2 B,2 A,3 G, | F,2 E,2 D,4 | z2 C,3 D, E,F, | G,3 F, D,E, F,2- | %33
w: ou en fos-|se par- fon- *||* * de,|[ou en _ _|fos- se par- * fon-|
 F,G, A,B, C4 | z2 C2 B,2 B,2 | A,3 G,/F,/ E,2 F,2- | F,E, D,2 C,D, E,F, | G,3 F, D,E, F,2- | %38
w: * * * * de.]|A- vecq el-|le _ _ _ voul-|* * droy- * * * *||
 F,E, C,3 D, E,F, | G,3 F, D,4 | _E,2 F,2 C,4 | F,8- | F,4 z4 | z4 z2 F,2 | F,G, A,B, C2 A,2 | %45
w: * * e'u- * * *|ser _ _|_ _ mez|jours,|_|aul-|tre _ _ _ _ ne|
 B,2 C2 F,4 | z2 F,2 F,2 F,2 | E,2 C,2 D,2 E,2 | F,G,A,B, C4 | F,4 z4 | z8 | z2 D,2 F,3 G, | %52
w: veulx, _ _|aul- tre ne|veulx, c'est mon de-|sir, _ _ _ _|_||aul- tre ne|
 A,2 F,2 G,2 A,2 | B,4 G,4 | F,8 | z2 C,2 D,2 F,2 | E,4 D,4 | C,2 E,2 A,4 | D,4 G,4 | E,4 A,2 D,2 | %60
w: veulx, c'est mon _|_ de-|sir,|en dan- gier|suis, bel-|le, m'y lai-||* vous, en|
 F,3 E, D,4 | z8 | z2 C,2 D,2 F,2- | F,2 E,2 D,4 | C,4 A,,4- | A,,4 D,4 | G,,4 C,3 D, | %67
w: dan- * gier,||en dan- gier|_ suis, bel-|le, m'y|_ lai-||
 E,2 F,2 C,4 | F,4 z2 D,2- | D,2 F,3 E, D,C, | B,,2 A,,2 B,,4 | F,8 |] %72
w: * * rez|vous, m'y|_ lai- * * *|* * rez|vous?|

